svgs/zooforzotero.svg

<svg xmlns="http://www.w3.org/2000/svg" viewBox="0 0 192 192"><path d="M166.905 175.5H25.095a8.599 8.599 0 0 1-6.078-2.517 8.599 8.599 0 0 1-2.517-6.078V25.095c0-2.279.906-4.467 2.517-6.078a8.599 8.599 0 0 1 6.078-2.517h141.81c2.279 0 4.467.906 6.078 2.517a8.599 8.599 0 0 1 2.517 6.078v141.81a8.599 8.599 0 0 1-2.517 6.078 8.599 8.599 0 0 1-6.078 2.517Z" fill="none" stroke="#000" stroke-width="8" stroke-linecap="round" stroke-linejoin="round"/><path d="M98.664 58.785h.043a12.209 12.209 0 0 1 12.205 12.205v7.993a12.206 12.206 0 0 1-12.205 12.204h-.043A12.206 12.206 0 0 1 86.46 78.983V70.99a12.209 12.209 0 0 1 12.204-12.205m36.441 0h.043a12.209 12.209 0 0 1 12.205 12.205v7.993a12.206 12.206 0 0 1-12.205 12.204h-.043a12.208 12.208 0 0 1-12.204-12.204V70.99a12.209 12.209 0 0 1 12.204-12.205m0 58.53h.043a12.208 12.208 0 0 1 12.205 12.204v7.993a12.205 12.205 0 0 1-12.205 12.204h-.043a12.207 12.207 0 0 1-12.204-12.204v-7.993a12.207 12.207 0 0 1 12.204-12.204m-32.272 12.247a12.292 12.292 0 0 1 12.247-12.076m-12.247-.171v32.401M44.69 42.284h32.359L44.69 91.144h32.359M90.199 143.528a12.201 12.201 0 0 1-22.819-6.016v-7.95a12.248 12.248 0 0 1 12.204-12.076 12.296 12.296 0 0 1 12.119 12.076v3.953H67.38m-16.287-26.256v36.355a6.152 6.152 0 0 0 3.135 5.315 6.143 6.143 0 0 0 3.096.787h1.848M44.69 117.315h12.806" fill="none" stroke="#000" stroke-width="8" stroke-linecap="round" stroke-linejoin="round"/></svg>

<svg
    xmlns="http://www.w3.org/2000/svg"
    viewBox="0 0 192 192"
    id="vector">
    <path
        id="path"
        d="M 166.905 175.5 L 25.095 175.5 C 22.816 175.5 20.628 174.594 19.017 172.983 C 17.406 171.372 16.5 169.184 16.5 166.905 L 16.5 25.095 C 16.5 22.816 17.406 20.628 19.017 19.017 C 20.628 17.406 22.816 16.5 25.095 16.5 L 166.905 16.5 C 169.184 16.5 171.372 17.406 172.983 19.017 C 174.594 20.628 175.5 22.816 175.5 25.095 L 175.5 166.905 C 175.5 169.184 174.594 171.372 172.983 172.983 C 171.372 174.594 169.184 175.5 166.905 175.5 Z"
        fill="none"
        stroke="#000000"
        stroke-width="8"
        stroke-linecap="round"
        stroke-linejoin="round"/>
    <path
        id="path_1"
        d="M 98.664 58.785 L 98.707 58.785 C 101.943 58.785 105.049 60.072 107.337 62.36 C 109.625 64.648 110.912 67.754 110.912 70.99 L 110.912 78.983 C 110.912 82.218 109.625 85.325 107.337 87.612 C 105.049 89.9 101.943 91.187 98.707 91.187 L 98.664 91.187 C 95.429 91.187 92.322 89.9 90.035 87.612 C 87.747 85.325 86.46 82.218 86.46 78.983 L 86.46 70.99 C 86.46 67.754 87.747 64.648 90.035 62.36 C 92.322 60.072 95.429 58.785 98.664 58.785 M 135.105 58.785 L 135.148 58.785 C 138.384 58.785 141.49 60.072 143.778 62.36 C 146.066 64.648 147.353 67.754 147.353 70.99 L 147.353 78.983 C 147.353 82.218 146.066 85.325 143.778 87.612 C 141.49 89.9 138.384 91.187 135.148 91.187 L 135.105 91.187 C 131.87 91.187 128.764 89.9 126.476 87.612 C 124.188 85.325 122.901 82.218 122.901 78.983 L 122.901 70.99 C 122.901 67.754 124.188 64.648 126.476 62.36 C 128.764 60.072 131.87 58.785 135.105 58.785 M 135.105 117.315 L 135.148 117.315 C 138.384 117.315 141.49 118.601 143.778 120.889 C 146.066 123.177 147.353 126.283 147.353 129.519 L 147.353 137.512 C 147.353 139.654 146.789 141.759 145.718 143.614 C 144.647 145.469 143.106 147.01 141.251 148.081 C 139.395 149.152 137.291 149.716 135.148 149.716 L 135.105 149.716 C 131.87 149.716 128.764 148.43 126.476 146.142 C 124.188 143.854 122.901 140.747 122.901 137.512 L 122.901 129.519 C 122.901 126.283 124.188 123.177 126.476 120.889 C 128.764 118.601 131.87 117.315 135.105 117.315 M 102.833 129.562 C 102.889 126.348 104.203 123.282 106.492 121.025 C 108.781 118.768 111.866 117.497 115.08 117.486 M 102.833 117.315 L 102.833 149.716"
        fill="none"
        stroke="#000000"
        stroke-width="8"
        stroke-linecap="round"
        stroke-linejoin="round"/>
    <path
        id="path_2"
        d="M 44.69 42.284 L 77.049 42.284 L 44.69 91.144 L 77.049 91.144"
        fill="none"
        stroke="#000000"
        stroke-width="8"
        stroke-linecap="round"
        stroke-linejoin="round"/>
    <path
        id="path_3"
        d="M 90.199 143.528 C 89.135 145.406 87.592 146.968 85.727 148.055 C 83.862 149.142 81.743 149.715 79.584 149.716 C 76.349 149.716 73.242 148.43 70.955 146.142 C 68.667 143.854 67.38 140.747 67.38 137.512 L 67.38 129.562 C 67.425 126.352 68.73 123.285 71.012 121.028 C 73.294 118.77 76.374 117.497 79.584 117.486 C 82.776 117.531 85.828 118.817 88.089 121.07 C 90.35 123.323 91.647 126.37 91.703 129.562 L 91.703 133.515 L 67.38 133.515 M 51.093 107.259 L 51.093 143.614 C 51.101 144.698 51.395 145.76 51.945 146.693 C 52.496 147.627 53.283 148.398 54.228 148.929 C 55.172 149.46 56.241 149.731 57.324 149.716 L 59.172 149.716 M 44.69 117.315 L 57.496 117.315"
        fill="none"
        stroke="#000000"
        stroke-width="8"
        stroke-linecap="round"
        stroke-linejoin="round"/>
</svg>
